build/img/icon-stopwatch.svg

<svg width="29" height="35" viewBox="0 0 29 35" fill="none" xmlns="http://www.w3.org/2000/svg">
<path d="M3.18833 11.6622L1.70191 10.1904C0.894381 9.39114 0.894381 8.09017 1.70191 7.29042C2.50945 6.49094 3.82351 6.49094 4.63104 7.29042L6.21806 8.86162C7.87358 7.72007 9.7608 6.92993 11.7381 6.55075V4.51172H10.3571C9.97576 4.51172 9.66667 4.2057 9.66667 3.82812V2.05078C9.66667 0.919914 10.5958 0 11.7381 0H17.2619C18.4042 0 19.3333 0.919914 19.3333 2.05078V3.82812C19.3333 4.2057 19.0242 4.51172 18.6429 4.51172H17.2619V6.55075C19.2389 6.92966 21.1264 7.72007 22.7819 8.86162L24.369 7.29042C25.1762 6.49094 26.4903 6.49094 27.2981 7.29042C28.1056 8.0899 28.1056 9.39087 27.2981 10.1904L25.8117 11.6622C27.872 14.203 29 17.3678 29 20.6445C29 28.5601 22.4952 35 14.5 35C6.50477 35 -1.90735e-06 28.5601 -1.90735e-06 20.6445C-1.90735e-06 17.3678 1.12796 14.203 3.18833 11.6622ZM3.65467 8.25706C3.38522 7.99057 2.94747 7.99084 2.67829 8.25706C2.40938 8.52356 2.40938 8.95721 2.67829 9.22371L4.10509 10.636C4.4266 10.3092 4.76374 9.99756 5.11438 9.70249L3.65467 8.25706ZM17.9524 2.05078C17.9524 1.67374 17.6427 1.36719 17.2619 1.36719H11.7381C11.3573 1.36719 11.0476 1.67374 11.0476 2.05078V3.14453H17.9524V2.05078ZM13.119 4.51172V6.35368C14.0342 6.26877 14.9655 6.26877 15.881 6.35368V4.51172H13.119ZM26.3217 8.25706C26.0525 7.99084 25.6145 7.99057 25.3453 8.25706L23.8856 9.70249C24.2363 9.99756 24.5734 10.3092 24.8949 10.636L26.3217 9.22371C26.5906 8.95721 26.5906 8.52356 26.3217 8.25706ZM14.5 33.6328C21.7338 33.6328 27.619 27.8062 27.619 20.6445C27.619 17.4853 26.4606 14.4415 24.3574 12.0732C23.778 11.4208 23.1315 10.8248 22.4359 10.3009C20.6927 8.98766 18.6294 8.12328 16.4689 7.80098C15.8224 7.70512 15.16 7.65625 14.5 7.65625C13.84 7.65625 13.1776 7.70512 12.5313 7.80098C10.3706 8.12328 8.30729 8.98766 6.56384 10.3009C5.86851 10.8248 5.22199 11.4208 4.64264 12.0732C2.53939 14.4415 1.38095 17.4853 1.38095 20.6445C1.38095 27.8062 7.26618 33.6328 14.5 33.6328Z"/>
<path d="M14.5001 22.6953C13.3579 22.6953 12.4287 21.7754 12.4287 20.6445C12.4287 19.7535 13.0059 18.9935 13.8096 18.7112V13.8086C13.8096 13.431 14.1187 13.125 14.5001 13.125C14.8815 13.125 15.1906 13.431 15.1906 13.8086V18.7112C15.9943 18.9935 16.5715 19.7535 16.5715 20.6445C16.5715 21.7754 15.6424 22.6953 14.5001 22.6953ZM14.5001 19.9609C14.1193 19.9609 13.8096 20.2675 13.8096 20.6445C13.8096 21.0216 14.1193 21.3281 14.5001 21.3281C14.8809 21.3281 15.1906 21.0216 15.1906 20.6445C15.1906 20.2675 14.8809 19.9609 14.5001 19.9609Z"/>
<path d="M7.14458 13.4326C7.15536 13.42 7.16615 13.4075 7.17829 13.3957C7.19124 13.3826 7.20499 13.3709 7.21875 13.3591C8.43571 12.1671 9.93912 11.2851 11.5706 10.8082C11.9366 10.7014 12.3205 10.9081 12.4283 11.2702C12.5362 11.6323 12.3275 12.0125 11.9617 12.1193C10.7529 12.4729 9.62517 13.0838 8.66389 13.8996L9.12969 14.3608C9.39914 14.6278 9.39914 15.0607 9.12969 15.3277C8.99484 15.4612 8.81817 15.528 8.64124 15.528C8.46457 15.528 8.28791 15.4612 8.15305 15.3277L7.68617 14.8655C6.43684 16.3037 5.69485 18.0741 5.55028 19.9609H6.21432C6.5957 19.9609 6.9048 20.2672 6.9048 20.6445C6.9048 21.0221 6.5957 21.3281 6.21432 21.3281H5.55028C5.69485 23.2152 6.43684 24.9853 7.68617 26.4235L8.15305 25.9613C8.42277 25.6945 8.85998 25.6945 9.12969 25.9613C9.39941 26.2283 9.39941 26.6612 9.12969 26.9282L8.66282 27.3904C10.1155 28.6273 11.9037 29.3619 13.8096 29.5053V28.8476C13.8096 28.47 14.1187 28.164 14.5 28.164C14.8814 28.164 15.1905 28.47 15.1905 28.8476V29.505C17.0963 29.3619 18.8846 28.6273 20.3373 27.3904L19.8704 26.9282C19.6007 26.6612 19.6007 26.2283 19.8704 25.9613C20.1401 25.6945 20.5773 25.6945 20.847 25.9613L21.3139 26.4235C22.5632 24.9853 23.3052 23.2149 23.4498 21.3281H22.7857C22.4044 21.3281 22.0953 21.0221 22.0953 20.6445C22.0953 20.2669 22.4044 19.9609 22.7857 19.9609H23.4498C23.3052 18.0741 22.5632 16.3037 21.3139 14.8655L20.847 15.3277C20.7122 15.4612 20.5355 15.528 20.3588 15.528C20.1819 15.528 20.0052 15.4612 19.8704 15.3277C19.6009 15.0607 19.6009 14.6278 19.8704 14.3608L20.3362 13.8996C19.3749 13.0836 18.2472 12.4729 17.0383 12.1193C16.6726 12.0125 16.4638 11.6323 16.5717 11.2702C16.6796 10.9081 17.0632 10.7017 17.4294 10.8082C19.0607 11.2849 20.5635 12.1666 21.7802 13.3581C21.7945 13.3701 21.8086 13.3824 21.8218 13.3955C21.8336 13.4072 21.8442 13.4195 21.855 13.4318C23.7913 15.3667 24.8572 17.9259 24.8572 20.6445C24.8572 23.3628 23.7913 25.9218 21.8555 27.8564C21.8447 27.869 21.8339 27.8815 21.8218 27.8933C21.8099 27.9053 21.7975 27.9157 21.7851 27.9264C19.8307 29.8431 17.246 30.8984 14.5 30.8984C11.7543 30.8984 9.16961 29.8434 7.21551 27.9269C7.20284 27.916 7.19016 27.9053 7.17829 27.8933C7.16642 27.8818 7.1559 27.8692 7.14512 27.8572C5.20882 25.9223 4.14289 23.3631 4.14289 20.6445C4.14289 17.9261 5.20882 15.3672 7.14458 13.4326Z"/>
<path d="M14.5 11.7578C14.1188 11.7578 13.8095 11.4515 13.8095 11.0742C13.8095 10.6969 14.1188 10.3906 14.5 10.3906C14.8811 10.3906 15.1904 10.6969 15.1904 11.0742C15.1904 11.4515 14.8811 11.7578 14.5 11.7578Z"/>
</svg>

<svg width="29" height="35" viewBox="0 0 29 35" fill="none" xmlns="http://www.w3.org/2000/svg"><path d="M3.188 11.662L1.702 10.19a2.038 2.038 0 010-2.9c.807-.8 2.122-.8 2.929 0l1.587 1.572a14.58 14.58 0 015.52-2.311V4.51h-1.38a.687.687 0 01-.691-.683V2.051C9.667.92 10.596 0 11.738 0h5.524c1.142 0 2.071.92 2.071 2.05v1.778a.687.687 0 01-.69.684h-1.381V6.55a14.578 14.578 0 015.52 2.31l1.587-1.57c.807-.8 2.121-.8 2.93 0a2.04 2.04 0 010 2.9l-1.487 1.471A14.252 14.252 0 0129 20.644C29 28.56 22.495 35 14.5 35S0 28.56 0 20.645c0-3.277 1.128-6.442 3.188-8.983zm.467-3.405a.696.696 0 00-.977 0 .68.68 0 000 .967l1.427 1.412c.322-.327.659-.638 1.01-.934l-1.46-1.445zm14.297-6.206a.688.688 0 00-.69-.684h-5.524c-.38 0-.69.307-.69.684v1.094h6.904V2.05zM13.12 4.51v1.843a15.006 15.006 0 012.762 0V4.512H13.12zm13.203 3.746a.696.696 0 00-.977 0l-1.46 1.445c.351.296.688.607 1.01.934l1.427-1.412a.68.68 0 000-.967zM14.5 33.633c7.234 0 13.119-5.827 13.119-12.989 0-3.159-1.158-6.202-3.262-8.57A13.177 13.177 0 0014.5 7.656a13.18 13.18 0 00-7.936 2.645 13.19 13.19 0 00-1.921 1.771 12.898 12.898 0 00-3.262 8.572c0 7.161 5.885 12.988 13.119 12.988z"/><path d="M14.5 22.695a2.063 2.063 0 01-2.071-2.05c0-.892.577-1.651 1.38-1.934V13.81c0-.378.31-.684.691-.684.382 0 .69.306.69.684v4.902a2.056 2.056 0 011.382 1.934c0 1.13-.93 2.05-2.072 2.05zm0-2.734c-.38 0-.69.306-.69.684 0 .377.31.683.69.683.38 0 .69-.306.69-.683a.688.688 0 00-.69-.684z"/><path d="M7.145 13.433a.54.54 0 01.033-.037l.04-.037a10.417 10.417 0 014.353-2.55.682.682 0 11.391 1.311 9.028 9.028 0 00-3.298 1.78l.466.46c.27.268.27.7 0 .968a.692.692 0 01-.977 0l-.467-.462A8.758 8.758 0 005.55 19.96h.664c.382 0 .69.306.69.684a.686.686 0 01-.69.683H5.55a8.757 8.757 0 002.136 5.096l.467-.463a.696.696 0 01.977 0c.27.267.27.7 0 .967l-.467.462a8.941 8.941 0 005.147 2.115v-.657c0-.378.309-.684.69-.684.381 0 .69.306.69.684v.657a8.939 8.939 0 005.147-2.115l-.467-.462a.679.679 0 010-.967.696.696 0 01.977 0l.467.463a8.758 8.758 0 002.136-5.096h-.664a.687.687 0 01-.69-.683c0-.378.308-.684.69-.684h.664a8.758 8.758 0 00-2.136-5.095l-.467.462a.692.692 0 01-.977 0 .68.68 0 010-.967l.466-.461a9.024 9.024 0 00-3.298-1.78.682.682 0 01-.466-.85.692.692 0 01.857-.462 10.414 10.414 0 014.351 2.55.672.672 0 01.042.037l.033.037a10.132 10.132 0 013.002 7.213c0 2.718-1.066 5.277-3.002 7.211a.555.555 0 01-.033.037.38.38 0 01-.037.033 10.34 10.34 0 01-7.285 2.972c-2.746 0-5.33-1.055-7.284-2.971l-.038-.034c-.012-.011-.022-.024-.033-.036a10.132 10.132 0 01-3.002-7.212 10.13 10.13 0 013.002-7.212z"/><path d="M14.5 11.758a.687.687 0 01-.69-.684c0-.377.309-.683.69-.683.381 0 .69.306.69.683a.688.688 0 01-.69.684z"/></svg>
